X:139
T: WIE SCHOEN ISTS IM FREIEN
N: F0262
O: Europa, Mitteleuropa, Deutschland
R: Jugend - Lied, Belehrung, Natur
M: 3/8
L: 1/16
K: A
E2 | A2G2A2 | B2A2
E2 | c2B2c2 | d2c2
c2 | e2d2c2 | B4c2 | B4
B2 | G2G2A2 | c2B2z
B | c2c2d2 | f2e2z
e | e2c2B2 | A4B2 | A4

